public/assets/img/svg/common/UkrPoshtaLogo.svg

<svg height="50" viewBox="0 0 35 50" width="35" xmlns="http://www.w3.org/2000/svg"><g fill="none" fill-rule="evenodd"><path d="m1 0h35v50h-35z"/><path d="m33.4014085 28.5526316-16.3907043-3.7280702c-4.223783-.9579101-7.18506222-4.7805484-7.07176207-9.1287537.11330017-4.3482054 3.26959927-8.00999274 7.53748457-8.7446294 4.2678853-.73463665 8.4577597 1.66264432 10.0057416 5.724891 1.5479819 4.0622467.0225989 8.65718-3.6427317 10.9730535-.0699622.0524399-.1038001.1405282-.087039.226584.0167612.0860558.0811527.1548382.1656306.1769248l7.2915493 1.6578947c.173459.0404032.3544186-.0247628.4628169-.1666667 3.5320482-4.6864945 4.2078674-10.946041 1.7581453-16.28422547-2.4497222-5.33818451-7.6268405-8.8874098-13.4682862-9.23331834h-.6811267c-6.807659-.10695175-13.10152291 3.62496608-16.29787114 9.66374822-3.19634824 6.03878209-2.75671096 13.36711069 1.13843448 18.97660269l14.58309856 20.9210526c.0641171.0882309.1663245.1403986.2750705.1403986.1087459 0 .2109533-.0521677.2750704-.1403986l14.3560563-20.4824561c.0762274-.0947275.0965655-.2230245.0533986-.3368505-.0431668-.113826-.1433271-.196011-.262976-.2157811z" fill="#ffc627" fill-rule="nonzero"/></g></svg>

<svg class="site-pin" width="35px" height="50px" viewBox="0 0 35 50" version="1.1" xmlns="http://www.w3.org/2000/svg" xmlns:xlink="http://www.w3.org/1999/xlink">
	<g stroke="none" stroke-width="1" fill="none" fill-rule="evenodd">
		<g transform="translate(-134.000000, -20.000000)">
			<g>
				<g id="pin-logo" transform="translate(134.000000, 20.000000)">
					<rect id="background-pin" x="1" y="0" width="35" height="50"></rect>
					<path id="shape-pin" d="M33.4014085,28.5526316 L17.0107042,24.8245614 C12.7869212,23.8666513 9.82564198,20.044013 9.93894213,15.6958077 C10.0522423,11.3476023 13.2085414,7.68581496 17.4764267,6.9511783 C21.744312,6.21654165 25.9341864,8.61382262 27.4821683,12.6760693 C29.0301502,16.738316 27.5047672,21.3332493 23.8394366,23.6491228 C23.7694744,23.7015627 23.7356365,23.789651 23.7523976,23.8757068 C23.7691588,23.9617626 23.8335503,24.030545 23.9180282,24.0526316 L31.2095775,25.7105263 C31.3830365,25.7509295 31.5639961,25.6857635 31.6723944,25.5438596 C35.2044426,20.8573651 35.8802618,14.5978186 33.4305397,9.25963413 C30.9808175,3.92144962 25.8036992,0.37222433 19.9622535,0.0263157895 L19.2811268,0.0263157895 C12.4734678,-0.0806359551 6.17960389,3.65128187 2.98325566,9.69006401 C-0.213092582,15.7288461 0.226544695,23.0571747 4.12169014,28.6666667 L18.7047887,49.5877193 C18.7689058,49.6759502 18.8711132,49.7281179 18.9798592,49.7281179 C19.0886051,49.7281179 19.1908125,49.6759502 19.2549296,49.5877193 L33.6109859,29.1052632 C33.6872133,29.0105357 33.7075514,28.8822387 33.6643845,28.7684127 C33.6212177,28.6545867 33.5210574,28.5724017 33.4014085,28.5526316 Z" fill="#FFC627" fill-rule="nonzero"></path>
				</g>
			</g>
		</g>
	</g>
</svg>
